Yaru++/mimetypes/16/text-xml.svg

<svg id="svg10" height="16" width="16" xmlns="http://www.w3.org/2000/svg">
  <path id="path965" d="m9.0039062 2.4921875-3.6484374 10.5078125h1.6621093l3.6249999-10.5078125zm-4.3359374 2.6152344-4.6679688 1.9648437v1.3457032l4.6679688 1.9648432.4238281-1.3124995-3.4082031-1.3242187 3.4082031-1.3242188zm6.6640622 0-.423828 1.3144531 3.408203 1.3242188-3.408203 1.3242187.423828 1.3124995 4.667969-1.9648432v-1.3457032z" fill="#808080"/>
</svg>

<?xml version="1.0" encoding="UTF-8" standalone="no"?>
<svg
   xmlns:dc="http://purl.org/dc/elements/1.1/"
   xmlns:cc="http://creativecommons.org/ns#"
   xmlns:rdf="http://www.w3.org/1999/02/22-rdf-syntax-ns#"
   xmlns:svg="http://www.w3.org/2000/svg"
   xmlns="http://www.w3.org/2000/svg"
   xmlns:sodipodi="http://sodipodi.sourceforge.net/DTD/sodipodi-0.dtd"
   xmlns:inkscape="http://www.inkscape.org/namespaces/inkscape"
   width="16"
   height="16"
   version="1.1"
   id="svg10"
   sodipodi:docname="text-xml.svg"
   inkscape:version="0.92.4 (5da689c313, 2019-01-14)">
  <metadata
     id="metadata16">
    <rdf:RDF>
      <cc:Work
         rdf:about="">
        <dc:format>image/svg+xml</dc:format>
        <dc:type
           rdf:resource="http://purl.org/dc/dcmitype/StillImage" />
      </cc:Work>
    </rdf:RDF>
  </metadata>
  <defs
     id="defs14" />
  <sodipodi:namedview
     pagecolor="#ffffff"
     bordercolor="#666666"
     borderopacity="1"
     objecttolerance="10"
     gridtolerance="10"
     guidetolerance="10"
     inkscape:pageopacity="0"
     inkscape:pageshadow="2"
     inkscape:window-width="1920"
     inkscape:window-height="1016"
     id="namedview12"
     showgrid="false"
     inkscape:zoom="14.75"
     inkscape:cx="8"
     inkscape:cy="8"
     inkscape:window-x="0"
     inkscape:window-y="27"
     inkscape:window-maximized="1"
     inkscape:current-layer="svg10" />
  <path
     style="font-style:normal;font-variant:normal;font-weight:bold;font-stretch:normal;font-size:medium;line-height:125%;font-family:Ubuntu;-inkscape-font-specification:'Ubuntu, Normal';text-align:center;letter-spacing:0px;word-spacing:0px;writing-mode:lr-tb;text-anchor:middle;display:inline;fill:#808080;fill-opacity:1;stroke:none;stroke-width:1.5999999px;stroke-linecap:butt;stroke-linejoin:miter;stroke-opacity:1;enable-background:new"
     d="M 9.0039062 2.4921875 L 5.3554688 13 L 7.0175781 13 L 10.642578 2.4921875 L 9.0039062 2.4921875 z M 4.6679688 5.1074219 L 0 7.0722656 L 0 8.4179688 L 4.6679688 10.382812 L 5.0917969 9.0703125 L 1.6835938 7.7460938 L 5.0917969 6.421875 L 4.6679688 5.1074219 z M 11.332031 5.1074219 L 10.908203 6.421875 L 14.316406 7.7460938 L 10.908203 9.0703125 L 11.332031 10.382812 L 16 8.4179688 L 16 7.0722656 L 11.332031 5.1074219 z "
     id="path965" />
</svg>
